X:1
T: The Clachan
C:
R:Strathspey
Q: 128
K:D
M:4/4
L:1/16
|:A4 f3A B4 g3B|A4 f3d ce3 e4|A4 f3A B4 g3B|A3B A3G Fd3 d4|
A4 f3A B4 g3B|A4 f3d ce3 e4|A4 f3A B4 g3B|A3B A3G Fd3 d4|
a4 f3d B3d g3b|a4 f3d ce3 e4|AA3 f3A BB3 g3B|((3B2A2G2) ((3F2G2A2) ((3B2c2d2) ((3e2f2g2) |
a4 f3d B3d g3b|a4 f3d ce3 e4|AA3 f3A BB3 g3B|A3B A3G Fd3 d4:|
